X:12
T:Autumn Woods
M:C|
L:1/8
S:Darcie's TrTuneSbk Vo.2 (1998) p. 2
R:Hornpipe
Z: Wosika
K:G
|:Bc| "G"dedc BcBA| GFGD "Emin"EDB,D| "C"cBce "G"dBgB| "Amin"AGAB "D"A2 Bc|
"G"dedc BcBA| GFGD "Emin"EDB,D| "C"Ggfe "D"dcBA| "G"G2GF G2::
 cB| "D"ABAG FGAB| "C"cBce "G"defg| "D"afge fd"A"e^c| "D"d^cde "D7"d=cBc|
"G"dcBd "D"cBAc| "G"BAGF GABc| dgfe "D"dcBA| "G"G2 GF G2:|
